X: 14984
T: Genetic Hambo, The
R: waltz
M: 3/4
K: Dmajor
A2|:"D"d2f2a2|"G"ga b2g2|"A"cd eg fe|"D"dc dfa2|
d2f2a2|"G"ga b2 g2|"A"cd eg fe|1 "D"d2d4:|2 "D"d2d2EE||
K:Amaj
|:"A"E2A2EE|"E"E2B2EE|"A"E2Ac dc|"E"BA GF EE|
"A"E2 A2EE|"E"E2B2EE|"A"A2ce "E"dB|1 "A"A2 A,2 EE:|2 "A"A2 A,2||

